X:1
T:Title
%%score { ( 1 4 ) | ( 2 3 ) }
L:1/8
M:4/4
K:F
V:1 treble nm="Grand Piano"
V:4 treble 
V:2 bass 
V:3 bass 
V:1
 z4 z2[Q:1/4=110] C2 | F2 F2 [CF]2 F2 | F4 F3 G | A2 A2 A2 A2 | [EG]6 A>B | c2 c2 d2 c2 | %6
 [Af]4 [CFA]3 [EG] | [A,F]2 [A,CF]2 [A,CF]2 [A,CF]2 | [CEG]6 z2 | z4 z2 G2 | z4 z2 [EA]2 | %11
 F4 [EG]4 |[M:3/4] F6 |] %13
V:2
 z4 z2 [F,A,]2 | [F,A,C]2 [C,A,C]2 [A,,A,]2 [C,A,C]2 | [F,A,C]4 [F,C]3- [F,B,C] | %3
 [F,CF]2 [CF]2 [A,CF]2[K:bass] [F,CF]2 | z4 z2[K:treble] [F,F]2 | [A,CF]2 [A,CF]2 [B,F]2 [A,CF]2 | %6
 [F,C]4 z2 z B, | F,2 A,,2 C,2 F,2 | C,6[K:treble] C2 | F3 E F2 C2 | F3 E F2[K:bass] [A,,F,]>B,, | %11
 [C,A,]C, C,2 C,2 C,2 |[M:3/4] [F,A,]6 |] %13
V:3
 x8 | x8 | z4 A,4 | x6[K:bass] x2 | [C,C]6[K:treble] C->[G,CE] | x8 | z4 F,4 | x8 | %8
 x6[K:treble] x2 | x8 | x6[K:bass] x2 | x8 |[M:3/4] x6 |] %13
V:4
 x8 | x8 | x8 | x8 | x8 | x8 | x8 | x8 | x8 | x8 | A3 G c2 z z/ G,/ | z A, A,2 B,2 B,2 | %12
[M:3/4] x6 |] %13

